icons/evolvere-blue-folders-flat-vivid-dark-fallback/apps/64/conky-manager.svg

<?xml version="1.0" encoding="UTF-8" standalone="no"?>
<!-- Created with Inkscape (http://www.inkscape.org/) -->

<svg
   xmlns:dc="http://purl.org/dc/elements/1.1/"
   xmlns:cc="http://creativecommons.org/ns#"
   xmlns:rdf="http://www.w3.org/1999/02/22-rdf-syntax-ns#"
   xmlns:svg="http://www.w3.org/2000/svg"
   xmlns="http://www.w3.org/2000/svg"
   xmlns:sodipodi="http://sodipodi.sourceforge.net/DTD/sodipodi-0.dtd"
   xmlns:inkscape="http://www.inkscape.org/namespaces/inkscape"
   width="64"
   height="64"
   id="svg13094"
   version="1.1"
   inkscape:version="0.91+devel r"
   sodipodi:docname="conky-manager.svg">
  <sodipodi:namedview
     id="base"
     pagecolor="#ffffff"
     bordercolor="#666666"
     borderopacity="1.0"
     inkscape:pageopacity="0"
     inkscape:pageshadow="2"
     inkscape:zoom="8.0000004"
     inkscape:cx="33.77515"
     inkscape:cy="28.26899"
     inkscape:document-units="px"
     inkscape:current-layer="svg13094"
     showgrid="true"
     inkscape:snap-bbox="true"
     inkscape:bbox-paths="true"
     inkscape:bbox-nodes="true"
     inkscape:snap-bbox-edge-midpoints="true"
     inkscape:snap-bbox-midpoints="true"
     inkscape:object-paths="true"
     inkscape:snap-intersection-paths="true"
     inkscape:object-nodes="true"
     inkscape:snap-smooth-nodes="true"
     inkscape:snap-midpoints="true"
     inkscape:snap-object-midpoints="true"
     inkscape:snap-center="true"
     showguides="true"
     inkscape:guide-bbox="true"
     inkscape:window-width="1920"
     inkscape:window-height="1023"
     inkscape:window-x="-10"
     inkscape:window-y="35"
     inkscape:window-maximized="1"
     inkscape:snap-global="true"
     fit-margin-top="0"
     fit-margin-left="0"
     fit-margin-right="0"
     fit-margin-bottom="0"
     showborder="true"
     inkscape:showpageshadow="false"
     inkscape:snap-page="true">
    <inkscape:grid
       type="xygrid"
       id="grid3075"
       empspacing="5"
       visible="true"
       enabled="true"
       snapvisiblegridlinesonly="true"
       originx="1.6362304e-08px"
       originy="18px" />
  </sodipodi:namedview>
  <defs
     id="defs13096" />
  <metadata
     id="metadata13099">
    <rdf:RDF>
      <cc:Work
         rdf:about="">
        <dc:format>image/svg+xml</dc:format>
        <dc:type
           rdf:resource="http://purl.org/dc/dcmitype/StillImage" />
        <dc:title></dc:title>
      </cc:Work>
    </rdf:RDF>
  </metadata>
  <path
     inkscape:connector-curvature="0"
     style="color:#000000;fill:#622d2d;fill-opacity:1;fill-rule:nonzero;stroke:none;stroke-width:2.28571415;marker:none;visibility:visible;display:inline;overflow:visible;enable-background:accumulate"
     d="m 0,4 0,30 0,28 2,2 30,0 30,0 2,-2 L 64,34 64,4 32,4 0,4 z"
     id="path4095" />
  <path
     inkscape:connector-curvature="0"
     style="color:#000000;fill:#a64a4a;fill-opacity:1;fill-rule:nonzero;stroke:none;stroke-width:2.28571415;marker:none;visibility:visible;display:inline;overflow:visible;enable-background:accumulate"
     d="M 2,0 0,1 0,4 32,4 64,4 64,1 62,0 32,0 2,0 z"
     id="path4090" />
  <path
     style="fill:#ffffff;fill-opacity:0.14487634;fill-rule:nonzero"
     d="M 0,3 0,6 2,4 Z"
     id="path4298"
     inkscape:connector-curvature="0"
     sodipodi:nodetypes="cccc" />
  <path
     d="M 64,6 62,4 64,3 z"
     id="path3028"
     style="fill:#1f0700;fill-opacity:0.13759861"
     inkscape:connector-curvature="0" />
  <g
     id="g3043"
     inkscape:export-filename="folder.png"
     inkscape:export-xdpi="90"
     inkscape:export-ydpi="90"
     transform="translate(-0.62500009,0.082283)" />
  <g
     id="scalable"
     transform="matrix(1.0385892,0,0,1.0385892,1214.7222,1878.8121)"
     inkscape:label="#g3701"
     style="fill:#ffffff" />
  <path
     style="color:#000000;fill:#350000;fill-opacity:0.12164579;fill-rule:nonzero;stroke:none;stroke-width:2.28571415;marker:none;visibility:visible;display:inline;overflow:visible;enable-background:accumulate"
     d="M 18 25 L 18 27 L 16 27 L 16 42 L 17 42 L 17 28 L 19 28 L 19 25 L 18 25 z M 23 25 L 23 27 L 21 27 L 21 28 L 24 28 L 24 25 L 23 25 z M 34.46875 25 L 44 45 L 38.53125 45 L 39 46 L 45 46 L 35 25 L 34.46875 25 z M 52.5625 25 L 44.75 43.21875 L 45.5 44.8125 L 49 36.65625 L 49 35.8125 L 53 26.46875 L 53 27.34375 L 54 25 L 52.5625 25 z M 29 27.15625 L 29 28.25 L 32 34.5625 L 32 45 L 29 45 L 29 46 L 33 46 L 33 35.5625 L 29 27.15625 z M 54 27.46875 L 53 29.8125 L 53 45 L 50 45 L 50 46 L 54 46 L 54 27.46875 z M 18 43 L 18 45 L 16 45 L 12 45 L 12 46 L 17 46 L 19 46 L 19 43 L 18 43 z M 23 43 L 23 45 L 21 45 L 21 46 L 24 46 L 24 43 L 23 43 z "
     id="rect3022" />
  <path
     inkscape:connector-curvature="0"
     id="path3838"
     d="m 11,24 0,21 5,0 2,0 0,-3 -2,0 0,-15 2,0 0,-3 -2,0 -5,0 z m 9,0 0,3 3,0 0,-3 -3,0 z m 8,0 10,21 6,0 -10,-21 -6,0 z M 47,24 41.34375,37.1875 44.5,43.8125 53,24 47,24 z M 28,26.15625 28,45 l 4,0 0,-10.4375 -4,-8.40625 z m 25,0.3125 -4,9.34375 0,9.1875 4,0 0,-18.53125 z M 20,42 l 0,3 3,0 0,-3 -3,0 z"
     style="color:#000000;fill:#f64e35;fill-opacity:1;fill-rule:nonzero;stroke:none;stroke-width:2.28571415;marker:none;visibility:visible;display:inline;overflow:visible;enable-background:accumulate" />
</svg>

<svg xmlns="http://www.w3.org/2000/svg" viewBox="0 0 64 64"><g color="#000"><path d="m0 4v30 28l2 2h30 30l2-2v-28-30h-32-32" fill="#622d2d"/><path d="m2 0l-2 1v3h32 32v-3l-2-1h-30-30" fill="#a64a4a"/></g><path d="m0 3v3l2-2" fill="#fff" fill-opacity=".145"/><path d="m64 6l-2-2 2-1z" fill="#1f0700" fill-opacity=".138"/><g color="#000"><path d="m18 25v2h-2v15h1v-14h2v-3h-1m5 0v2h-2v1h3v-3h-1m11.469 0l9.531 20h-5.469l.469 1h6l-10-21h-.531m18.09 0l-7.813 18.219.75 1.594 3.5-8.156v-.844l4-9.344v.875l1-2.344h-1.438m-23.563 2.156v1.094l3 6.313v10.438h-3v1h4v-10.438l-4-8.406m25 .313l-1 2.344v15.188h-3v1h4v-18.531m-36 15.531v2h-2-4v1h5 2v-3h-1m5 0v2h-2v1h3v-3h-1" fill="#350000" fill-opacity=".122"/><path d="m11 24v21h5 2v-3h-2v-15h2v-3h-2-5m9 0v3h3v-3h-3m8 0l10 21h6l-10-21h-6m19 0l-5.656 13.188 3.156 6.625 8.5-19.813h-6m-19 2.156v18.844h4v-10.438l-4-8.406m25 .313l-4 9.344v9.188h4v-18.531m-33 15.531v3h3v-3h-3" fill="#f64e35"/></g></svg>
